src/extras-openmoji/healthcare/E31C.svg

<?xml version="1.0" encoding="UTF-8"?>
<svg id="emoji" xmlns="http://www.w3.org/2000/svg" viewBox="0 0 72 72">
  <g id="grid">
    <path d="m68,4v64H4V4h64m4-4H0v72h72V0Z" fill="#b3b3b3"/>
    <path d="m12.923,10.9583h46.1539c1.0621,0,1.9231.861,1.9231,1.9231h0v46.1538c0,1.0621-.861,1.9231-1.9231,1.9231H12.9231c-1.0621,0-1.9231-.861-1.9231-1.9231h0V12.8813c0-1.062.861-1.923,1.923-1.923h0Z" fill="none" stroke="#00a5ff" stroke-miterlimit="10" stroke-width=".1"/>
    <rect x="16" y="4" width="40" height="64" rx="2.2537" ry="2.2537" fill="none" stroke="#00a5ff" stroke-miterlimit="10" stroke-width=".1"/>
    <rect x="4" y="16" width="64" height="40" rx="2.2537" ry="2.2537" fill="none" stroke="#00a5ff" stroke-miterlimit="10" stroke-width=".1"/>
    <circle cx="36" cy="36" r="29" fill="none" stroke="#00a5ff" stroke-miterlimit="10" stroke-width=".1"/>
  </g>
  <g id="color">
    <ellipse cx="35.9803" cy="39.9715" rx="19.2972" ry="11.0098" fill="#fff"/>
    <circle cx="36.1436" cy="39.6511" r="8.8964" fill="#a57939"/>
  </g>
  <g id="line">
    <ellipse cx="36" cy="39.9211" rx="20" ry="11.7371" fill="none" stroke="#000" stroke-linecap="round" stroke-linejoin="round" stroke-width="2"/>
    <circle cx="36.1436" cy="39.6511" r="4.8502"/>
    <circle cx="36.1436" cy="39.6511" r="4.8502" fill="none"/>
    <circle cx="36.1436" cy="39.6511" r="8.8964" fill="none" stroke="#000" stroke-linecap="round" stroke-linejoin="round" stroke-width="2"/>
    <polyline points="43.135 24.35 45.118 20.313 47.144 22.465 49.635 17.393" fill="none" stroke="#000" stroke-linecap="round" stroke-linejoin="round" stroke-width="2"/>
    <polyline points="24.316 16.259 26.649 20.104 23.745 20.653 26.675 25.483" fill="none" stroke="#000" stroke-linecap="round" stroke-linejoin="round" stroke-width="2"/>
    <polyline points="36.48 22.682 36.29 18.188 33.569 19.342 33.331 13.696" fill="none" stroke="#000" stroke-linecap="round" stroke-linejoin="round" stroke-width="2"/>
  </g>
  <g id="color-foreground">
    <polyline points="43.135 24.35 45.118 20.313 47.144 22.465 49.635 17.393" fill="none" stroke="#d22f27" stroke-linecap="round" stroke-linejoin="round" stroke-width="2"/>
    <polyline points="24.316 16.259 26.649 20.104 23.745 20.653 26.675 25.483" fill="none" stroke="#d22f27" stroke-linecap="round" stroke-linejoin="round" stroke-width="2"/>
    <polyline points="36.48 22.682 36.29 18.188 33.569 19.342 33.331 13.696" fill="none" stroke="#d22f27" stroke-linecap="round" stroke-linejoin="round" stroke-width="2"/>
  </g>
</svg>

<svg id="emoji" viewBox="0 0 72 72" xmlns="http://www.w3.org/2000/svg">
  <g id="grid">
    <path fill="#b3b3b3" d="M68,4V68H4V4H68m4-4H0V72H72V0Z"/>
    <path fill="none" stroke="#00a5ff" stroke-miterlimit="10" stroke-width="0.1" d="M12.923,10.9583H59.0769A1.9231,1.9231,0,0,1,61,12.8814V59.0352a1.9231,1.9231,0,0,1-1.9231,1.9231H12.9231A1.9231,1.9231,0,0,1,11,59.0352V12.8813A1.923,1.923,0,0,1,12.923,10.9583Z"/>
    <rect x="16" y="4" rx="2.2537" width="40" height="64" fill="none" stroke="#00a5ff" stroke-miterlimit="10" stroke-width="0.1"/>
    <rect x="16" y="4" rx="2.2537" width="40" height="64" transform="translate(72) rotate(90)" fill="none" stroke="#00a5ff" stroke-miterlimit="10" stroke-width="0.1"/>
    <circle cx="36" cy="36" r="29" fill="none" stroke="#00a5ff" stroke-miterlimit="10" stroke-width="0.1"/>
  </g>
  <g id="color">
    <circle cx="36.1436" cy="39.6511" r="8.8964" fill="#a57939"/>
  </g>
  <g id="line">
    <ellipse cx="36" cy="39.9211" rx="20" ry="11.7371" fill="none" stroke="#000" stroke-linecap="round" stroke-linejoin="round" stroke-width="2"/>
    <circle cx="36.1436" cy="39.6511" r="4.8502"/>
    <circle cx="36.1436" cy="39.6511" r="4.8502" fill="none"/>
    <circle cx="36.1436" cy="39.6511" r="8.8964" fill="none" stroke="#000" stroke-linecap="round" stroke-linejoin="round" stroke-width="2"/>
    <polyline fill="none" stroke="#000" stroke-linecap="round" stroke-linejoin="round" stroke-width="2" points="43.135 24.35 45.118 20.313 47.144 22.465 49.635 17.393"/>
    <polyline fill="none" stroke="#000" stroke-linecap="round" stroke-linejoin="round" stroke-width="2" points="24.316 16.259 26.649 20.104 23.745 20.653 26.675 25.483"/>
    <polyline fill="none" stroke="#000" stroke-linecap="round" stroke-linejoin="round" stroke-width="2" points="36.48 22.682 36.29 18.188 33.569 19.342 33.331 13.696"/>
  </g>
  <g id="color-foreground">
    <polyline fill="none" stroke="#d22f27" stroke-linecap="round" stroke-linejoin="round" stroke-width="2" points="43.135 24.35 45.118 20.313 47.144 22.465 49.635 17.393"/>
    <polyline fill="none" stroke="#d22f27" stroke-linecap="round" stroke-linejoin="round" stroke-width="2" points="24.316 16.259 26.649 20.104 23.745 20.653 26.675 25.483"/>
    <polyline fill="none" stroke="#d22f27" stroke-linecap="round" stroke-linejoin="round" stroke-width="2" points="36.48 22.682 36.29 18.188 33.569 19.342 33.331 13.696"/>
  </g>
</svg>
